packages/foundations/assets/icons/functional/images/transportation/ship_16.svg

<svg width="16" height="16" viewBox="0 0 16 16" fill="none" xmlns="http://www.w3.org/2000/svg">
<g clip-path="url(#clip0_2214_7251)">
<path fill-rule="evenodd" clip-rule="evenodd" d="M12.8019 12.2731C12.8571 12.336 13.1577 12.8 13.5998 12.8C14.0418 12.8 14.4 13.1581 14.4 13.6C14.4 14.0102 14.0556 14.4008 13.5968 14.4C13.1587 14.4 12.6931 14.2232 12.2 13.8696C11.7383 14.2177 11.2717 14.3918 10.8002 14.392C10.3287 14.3922 9.86192 14.2184 9.39998 13.8704C8.93319 14.2181 8.46575 14.3947 7.99766 14.4C7.52957 14.4053 7.06367 14.2287 6.59998 13.8704C6.13355 14.2182 5.66687 14.3947 5.19994 14.4C4.733 14.4053 4.26635 14.2287 3.79998 13.8704C3.34056 14.2182 2.87389 14.3947 2.39998 14.4C1.95815 14.4 1.59998 14.0418 1.59998 13.6C1.59998 13.1581 1.95815 12.8 2.39998 12.8C2.49563 12.8 2.87873 12.6385 3.1975 12.2736C3.51628 11.9088 4.08367 11.9088 4.40245 12.2736C4.45734 12.3365 4.78989 12.8001 5.19994 12.8C5.60998 12.7999 5.94284 12.3361 5.99793 12.2732C6.31663 11.9089 6.88321 11.9089 7.20196 12.2731C7.25708 12.3361 7.60119 12.8 8.00021 12.8C8.39924 12.8 8.74289 12.336 8.79803 12.273C9.11663 11.9091 9.68283 11.9089 10.0016 12.2727C10.0569 12.3358 10.4012 12.7999 10.8002 12.8C11.1992 12.8001 11.5429 12.336 11.598 12.2731C11.9167 11.9089 12.4832 11.9089 12.8019 12.2731ZM9.59998 1.59998C9.93648 1.59998 10.2334 1.80991 10.3491 2.11921L11.6 5.59998H13.6C14.0525 5.59998 14.415 5.97506 14.3995 6.42736C14.3386 8.20691 13.5599 9.87549 12.2573 11.0045C11.9234 11.2939 11.4181 11.2578 11.1288 10.9239C10.8394 10.5901 10.8755 10.0848 11.2093 9.79544C11.9579 9.14662 12.3973 8.40877 12.7016 7.19998C9.29266 7.1838 5.8588 7.1838 2.39998 7.19998C1.98971 7.19998 1.59998 6.81024 1.59998 6.39998C1.59998 5.98971 1.90881 5.65157 2.30668 5.60536L9.94958 5.59998L8.99998 3.19998H2.39998C1.98971 3.19998 1.59998 2.81024 1.59998 2.39998C1.59998 1.98971 1.90881 1.65157 2.30668 1.60536L9.59998 1.59998ZM9.59998 7.99998C10.0418 7.99998 10.4 8.35815 10.4 8.79998C10.4 9.2418 10.0418 9.59998 9.59998 9.59998C9.15815 9.59998 8.79998 9.2418 8.79998 8.79998C8.79998 8.35815 9.15815 7.99998 9.59998 7.99998ZM6.39998 7.99998C6.8418 7.99998 7.19998 8.35815 7.19998 8.79998C7.19998 9.2418 6.8418 9.59998 6.39998 9.59998C5.95815 9.59998 5.59998 9.2418 5.59998 8.79998C5.59998 8.35815 5.95815 7.99998 6.39998 7.99998ZM3.19998 7.99998C3.6418 7.99998 3.99998 8.35815 3.99998 8.79998C3.99998 9.2418 3.6418 9.59998 3.19998 9.59998C2.75815 9.59998 2.39998 9.2418 2.39998 8.79998C2.39998 8.35815 2.75815 7.99998 3.19998 7.99998Z" fill="#1A1C1F"/>
</g>
<defs>
<clipPath id="clip0_2214_7251">
<rect width="16" height="16" fill="white"/>
</clipPath>
</defs>
</svg>

<svg xmlns="http://www.w3.org/2000/svg" width="16" height="16" fill="none"><g clip-path="url(#a)"><path fill="#1A1C1F" fill-rule="evenodd" d="M12.802 12.273c.055.063.356.527.798.527a.8.8 0 0 1 .8.8c0 .41-.344.8-.803.8q-.657 0-1.397-.53-.692.522-1.4.522-.707 0-1.4-.522-.7.522-1.402.53T6.6 13.87q-.7.522-1.4.53t-1.4-.53q-.69.522-1.4.53a.8.8 0 0 1 0-1.6c.096 0 .479-.162.797-.526a.8.8 0 0 1 1.205 0c.055.063.388.526.798.526s.743-.464.798-.527a.8.8 0 0 1 1.204 0c.055.063.4.527.798.527.4 0 .743-.464.798-.527a.8.8 0 0 1 1.204 0c.055.063.4.527.798.527.4 0 .743-.464.798-.527a.8.8 0 0 1 1.204 0M9.6 1.6a.8.8 0 0 1 .75.52L11.6 5.6h2a.8.8 0 0 1 .8.827c-.061 1.78-.84 3.448-2.143 4.578a.8.8 0 0 1-1.048-1.21c.749-.648 1.188-1.386 1.493-2.595Q7.588 7.176 2.4 7.2c-.41 0-.8-.39-.8-.8a.8.8 0 0 1 .707-.795L9.95 5.6 9 3.2H2.4c-.41 0-.8-.39-.8-.8a.8.8 0 0 1 .707-.795zm0 6.4a.8.8 0 1 1 0 1.6.8.8 0 0 1 0-1.6M6.4 8a.8.8 0 1 1 0 1.6.8.8 0 0 1 0-1.6M3.2 8a.8.8 0 1 1 0 1.6.8.8 0 0 1 0-1.6" clip-rule="evenodd"/></g><defs><clipPath id="a"><path fill="#fff" d="M0 0h16v16H0z"/></clipPath></defs></svg>
